_includes/icons/color-robot-2.svg

<svg fill="#666" height="50" viewBox="0 0 48 48" width="50" xmlns="http://www.w3.org/2000/svg"><path d="m30 10h-12c-.550781 0-1-.449219-1-1v-1c0-.550781.449219-1 1-1h12c.550781 0 1 .449219 1 1v1c0 .550781-.449219 1-1 1z" fill="#546e7a"/><path d="m37 28v-6c0-.550781.449219-1 1-1h2c.550781 0 1 .449219 1 1v6c0 .550781-.449219 1-1 1h-2c-.550781 0-1-.449219-1-1zm-4.765625-15.714844-1.421875 1.40625c-.390625.386719-.398437 1.023438-.011719 1.414063l5.371094 4.875c.386719.390625 1.023438.398437 1.414063.007812l1.421875-1.402343c.390625-.386719.398437-1.023438.011718-1.414063l-5.371093-4.875c-.386719-.390625-1.023438-.394531-1.414063-.011719zm-.234375 20.714844v-7c0-.550781-.449219-1-1-1h-4c-.550781 0-1 .449219-1 1v7c0 .550781.449219 1 1 1h4c.550781 0 1-.449219 1-1zm0 9v-5c0-.550781-.449219-1-1-1h-4c-.550781 0-1 .449219-1 1v5c0 .550781.449219 1 1 1h4c.550781 0 1-.449219 1-1zm-10-9v-7c0-.550781-.449219-1-1-1h-4c-.550781 0-1 .449219-1 1v7c0 .550781.449219 1 1 1h4c.550781 0 1-.449219 1-1zm-11-5v-6c0-.550781-.449219-1-1-1h-2c-.550781 0-1 .449219-1 1v6c0 .550781.449219 1 1 1h2c.550781 0 1-.449219 1-1zm3.351563-15.703125-5.371094 4.875c-.386719.390625-.382813 1.027344.007812 1.414063l1.425782 1.402343c.390625.386719 1.027343.382813 1.414062-.007812l5.367188-4.875c.386718-.390625.382812-1.027344-.007813-1.414063l-1.421875-1.40625c-.390625-.382812-1.027344-.378906-1.414062.011719zm7.648437 29.703125v-5c0-.550781-.449219-1-1-1h-4c-.550781 0-1 .449219-1 1v5c0 .550781.449219 1 1 1h4c.550781 0 1-.449219 1-1zm8-29v-7.96875c0-.570312-.460937-1.03125-1.03125-1.03125h-9.9375c-.570312 0-1.03125.460938-1.03125 1.03125v7.96875c0 .570313.460938 1.03125 1.03125 1.03125h9.9375c.570313 0 1.03125-.460937 1.03125-1.03125z" fill="#78909c"/><path d="m33 27h-18c-.550781 0-1-.449219-1-1v-13c0-.550781.449219-1 1-1h18c.550781 0 1 .449219 1 1v13c0 .550781-.449219 1-1 1z" fill="#90a4ae"/><path d="m19 16h10v6h-10z" fill="#263238"/><path d="m26 10h-4c-1.101562 0-2-.898437-2-2 0-1.101562.898438-2 2-2h4c1.101563 0 2 .898438 2 2 0 1.101563-.898437 2-2 2zm-7 27c1.105469 0 2-.894531 2-2s-.894531-2-2-2-2 .894531-2 2 .894531 2 2 2zm-10-15c1.105469 0 2-.894531 2-2s-.894531-2-2-2-2 .894531-2 2 .894531 2 2 2zm32-2c0-1.105469-.894531-2-2-2s-2 .894531-2 2 .894531 2 2 2 2-.894531 2-2zm-12 17c1.105469 0 2-.894531 2-2s-.894531-2-2-2-2 .894531-2 2 .894531 2 2 2z" fill="#455a64"/><path d="m21 8c0-.550781.449219-1 1-1s1 .449219 1 1-.449219 1-1 1-1-.449219-1-1zm5 1c.550781 0 1-.449219 1-1s-.449219-1-1-1-1 .449219-1 1 .449219 1 1 1z" fill="#18ffff"/><path d="m27 21h-2v-4h2zm-4-3h-2v3h2z" fill="#1de9b6"/><path d="m22 29h-6v-2h6zm10-2h-6v2h6zm-20-7.175781 2-1.8125v-5.398438l-2 1.816407zm22-1.8125 2 1.8125v-5.394531l-2-1.816407z" fill="#607d8b"/><path d="m12 31c0 .554688-.449219 1-1 1s-1-.445312-1-1c0-.550781-.449219-1-1-1s-1 .449219-1 1c0 .554688-.449219 1-1 1s-1-.445312-1-1c0-.984375.484375-1.855469 1.222656-2.402344.179688.238282.457032.402344.777344.402344h2c.320313 0 .597656-.164062.777344-.402344.738281.546875 1.222656 1.417969 1.222656 2.402344zm28.777344-2.402344c-.179688.238282-.457031.402344-.777344.402344h-2c-.320312 0-.597656-.164062-.777344-.402344-.738281.546875-1.222656 1.417969-1.222656 2.402344 0 .554688.445313 1 1 1 .554688 0 1-.445312 1-1 0-.550781.449219-1 1-1s1 .449219 1 1c0 .554688.445313 1 1 1 .554688 0 1-.445312 1-1 0-.984375-.484375-1.855469-1.222656-2.402344zm-17.777344 15.402344c0-1.101562-.898437-2-2-2h-4c-1.101562 0-2 .898438-2 2zm10 0c0-1.101562-.898437-2-2-2h-4c-1.101562 0-2 .898438-2 2z" fill="#90a4ae"/></svg>

<svg xmlns="http://www.w3.org/2000/svg" viewBox="0 0 48 48" width="50" height="50" fill="#666"><path d="M 30 10 L 18 10 C 17.449219 10 17 9.550781 17 9 L 17 8 C 17 7.449219 17.449219 7 18 7 L 30 7 C 30.550781 7 31 7.449219 31 8 L 31 9 C 31 9.550781 30.550781 10 30 10 Z" fill="#546e7a"/><path d="M 37 28 L 37 22 C 37 21.449219 37.449219 21 38 21 L 40 21 C 40.550781 21 41 21.449219 41 22 L 41 28 C 41 28.550781 40.550781 29 40 29 L 38 29 C 37.449219 29 37 28.550781 37 28 Z M 32.234375 12.285156 L 30.8125 13.691406 C 30.421875 14.078125 30.414063 14.714844 30.800781 15.105469 L 36.171875 19.980469 C 36.558594 20.371094 37.195313 20.378906 37.585938 19.988281 L 39.007813 18.585938 C 39.398438 18.199219 39.40625 17.5625 39.019531 17.171875 L 33.648438 12.296875 C 33.261719 11.90625 32.625 11.902344 32.234375 12.285156 Z M 32 33 L 32 26 C 32 25.449219 31.550781 25 31 25 L 27 25 C 26.449219 25 26 25.449219 26 26 L 26 33 C 26 33.550781 26.449219 34 27 34 L 31 34 C 31.550781 34 32 33.550781 32 33 Z M 32 42 L 32 37 C 32 36.449219 31.550781 36 31 36 L 27 36 C 26.449219 36 26 36.449219 26 37 L 26 42 C 26 42.550781 26.449219 43 27 43 L 31 43 C 31.550781 43 32 42.550781 32 42 Z M 22 33 L 22 26 C 22 25.449219 21.550781 25 21 25 L 17 25 C 16.449219 25 16 25.449219 16 26 L 16 33 C 16 33.550781 16.449219 34 17 34 L 21 34 C 21.550781 34 22 33.550781 22 33 Z M 11 28 L 11 22 C 11 21.449219 10.550781 21 10 21 L 8 21 C 7.449219 21 7 21.449219 7 22 L 7 28 C 7 28.550781 7.449219 29 8 29 L 10 29 C 10.550781 29 11 28.550781 11 28 Z M 14.351563 12.296875 L 8.980469 17.171875 C 8.59375 17.5625 8.597656 18.199219 8.988281 18.585938 L 10.414063 19.988281 C 10.804688 20.375 11.441406 20.371094 11.828125 19.980469 L 17.195313 15.105469 C 17.582031 14.714844 17.578125 14.078125 17.1875 13.691406 L 15.765625 12.285156 C 15.375 11.902344 14.738281 11.90625 14.351563 12.296875 Z M 22 42 L 22 37 C 22 36.449219 21.550781 36 21 36 L 17 36 C 16.449219 36 16 36.449219 16 37 L 16 42 C 16 42.550781 16.449219 43 17 43 L 21 43 C 21.550781 43 22 42.550781 22 42 Z M 30 13 L 30 5.03125 C 30 4.460938 29.539063 4 28.96875 4 L 19.03125 4 C 18.460938 4 18 4.460938 18 5.03125 L 18 13 C 18 13.570313 18.460938 14.03125 19.03125 14.03125 L 28.96875 14.03125 C 29.539063 14.03125 30 13.570313 30 13 Z" fill="#78909c"/><path d="M 33 27 L 15 27 C 14.449219 27 14 26.550781 14 26 L 14 13 C 14 12.449219 14.449219 12 15 12 L 33 12 C 33.550781 12 34 12.449219 34 13 L 34 26 C 34 26.550781 33.550781 27 33 27 Z" fill="#90a4ae"/><path d="M 19 16 L 29 16 L 29 22 L 19 22 Z" fill="#263238"/><path d="M 26 10 L 22 10 C 20.898438 10 20 9.101563 20 8 C 20 6.898438 20.898438 6 22 6 L 26 6 C 27.101563 6 28 6.898438 28 8 C 28 9.101563 27.101563 10 26 10 Z M 19 37 C 20.105469 37 21 36.105469 21 35 C 21 33.894531 20.105469 33 19 33 C 17.894531 33 17 33.894531 17 35 C 17 36.105469 17.894531 37 19 37 Z M 9 22 C 10.105469 22 11 21.105469 11 20 C 11 18.894531 10.105469 18 9 18 C 7.894531 18 7 18.894531 7 20 C 7 21.105469 7.894531 22 9 22 Z M 41 20 C 41 18.894531 40.105469 18 39 18 C 37.894531 18 37 18.894531 37 20 C 37 21.105469 37.894531 22 39 22 C 40.105469 22 41 21.105469 41 20 Z M 29 37 C 30.105469 37 31 36.105469 31 35 C 31 33.894531 30.105469 33 29 33 C 27.894531 33 27 33.894531 27 35 C 27 36.105469 27.894531 37 29 37 Z" fill="#455a64"/><path d="M 21 8 C 21 7.449219 21.449219 7 22 7 C 22.550781 7 23 7.449219 23 8 C 23 8.550781 22.550781 9 22 9 C 21.449219 9 21 8.550781 21 8 Z M 26 9 C 26.550781 9 27 8.550781 27 8 C 27 7.449219 26.550781 7 26 7 C 25.449219 7 25 7.449219 25 8 C 25 8.550781 25.449219 9 26 9 Z" fill="#18ffff"/><path d="M 27 21 L 25 21 L 25 17 L 27 17 Z M 23 18 L 21 18 L 21 21 L 23 21 Z" fill="#1de9b6"/><path d="M 22 29 L 16 29 L 16 27 L 22 27 Z M 32 27 L 26 27 L 26 29 L 32 29 Z M 12 19.824219 L 14 18.011719 L 14 12.613281 L 12 14.429688 Z M 34 18.011719 L 36 19.824219 L 36 14.429688 L 34 12.613281 Z" fill="#607d8b"/><path d="M 12 31 C 12 31.554688 11.550781 32 11 32 C 10.449219 32 10 31.554688 10 31 C 10 30.449219 9.550781 30 9 30 C 8.449219 30 8 30.449219 8 31 C 8 31.554688 7.550781 32 7 32 C 6.449219 32 6 31.554688 6 31 C 6 30.015625 6.484375 29.144531 7.222656 28.597656 C 7.402344 28.835938 7.679688 29 8 29 L 10 29 C 10.320313 29 10.597656 28.835938 10.777344 28.597656 C 11.515625 29.144531 12 30.015625 12 31 Z M 40.777344 28.597656 C 40.597656 28.835938 40.320313 29 40 29 L 38 29 C 37.679688 29 37.402344 28.835938 37.222656 28.597656 C 36.484375 29.144531 36 30.015625 36 31 C 36 31.554688 36.445313 32 37 32 C 37.554688 32 38 31.554688 38 31 C 38 30.449219 38.449219 30 39 30 C 39.550781 30 40 30.449219 40 31 C 40 31.554688 40.445313 32 41 32 C 41.554688 32 42 31.554688 42 31 C 42 30.015625 41.515625 29.144531 40.777344 28.597656 Z M 23 44 C 23 42.898438 22.101563 42 21 42 L 17 42 C 15.898438 42 15 42.898438 15 44 Z M 33 44 C 33 42.898438 32.101563 42 31 42 L 27 42 C 25.898438 42 25 42.898438 25 44 Z" fill="#90a4ae"/></svg>
